X: 19976
T: Jim Donoghue's
R: reel
M: 4/4
K: Dmajor
~A3F BFAF|BFAF EDB,D|~A3F BFAF|EDEF D2z2|
~A3F BFAF|DF~F2 ABde|fzfe df~f2|dBAF DEED|
~A3F BF~F2|BzAF EDB,D|~A3F BFAF|EDEF D2z2|
ABFA (3Bcd AF|DF~F2 ABde|fzfe df~f2|dzAF DF(3Bcd|
effe fgfe|dfed BAFz|Beed efde|~f2df edBd|
effe fgfe|dfed BAFz|ABde fdAF|EDEF D2z2|
df~f2 ~f3e|dfed BAFA|Be~e2 ~e3g|fzdf edBd|
fbge fgfe|dfed BAFz|FAde fdAF|EDEF D2z2|

